svgs/light/kiwi-bird.svg

<svg xmlns="http://www.w3.org/2000/svg" viewBox="0 0 576 512"><!--! Font Awesome Pro 6.4.0 by @fontawesome - https://fontawesome.com License - https://fontawesome.com/license (Commercial License) Copyright 2023 Fonticons, Inc. --><path d="M192 384c33.9 0 65.3-10.5 91.2-28.5c33.7-23.4 78.2-51.5 130.4-51.5H464c44.2 0 80-35.8 80-80s-35.8-80-80-80H413.6c-52.2 0-96.7-28.1-130.4-51.5C257.3 74.5 225.9 64 192 64C103.6 64 32 135.6 32 224s71.6 160 160 160zm311.3-55.1L544 402.3V302.4c-11.4 11.6-25.2 20.7-40.7 26.5zM546 471.8l-75.5-136c-2.1 .1-4.3 .2-6.5 .2H413.6c-41.2 0-78.3 22.3-112.1 45.8c-13.9 9.7-29.2 17.5-45.4 23.3V464c0 8.8-7.2 16-16 16s-16-7.2-16-16V413.3c-10.4 1.7-21.1 2.7-32 2.7c-22.4 0-44-3.8-64-10.9V464c0 8.8-7.2 16-16 16s-16-7.2-16-16V390.3C38.6 357.1 0 295.1 0 224C0 118 86 32 192 32c40.7 0 78.4 12.6 109.4 34.2c33.8 23.5 71 45.8 112.1 45.8H464c61.9 0 112 50.1 112 112V464c0 7.3-4.9 13.7-12 15.5s-14.5-1.3-18-7.7zM448 200a24 24 0 1 1 0 48 24 24 0 1 1 0-48z"/></svg>

<svg xmlns="http://www.w3.org/2000/svg" viewBox="0 0 576 512"><!--! Font Awesome Pro 6.3.0 by @fontawesome - https://fontawesome.com License - https://fontawesome.com/license (Commercial License) Copyright 2023 Fonticons, Inc. --><path d="M424 224C424 210.7 434.7 200 448 200C461.3 200 472 210.7 472 224C472 237.3 461.3 248 448 248C434.7 248 424 237.3 424 224zM546 471.8L470.5 335.8C468.3 335.9 466.2 336 464 336H413.6C372.4 336 335.3 358.3 301.4 381.8C287.5 391.5 272.3 399.3 256 405.1V464C256 472.8 248.8 480 240 480C231.2 480 224 472.8 224 464V413.3C213.6 415.1 202.9 416 192 416C169.6 416 148 412.2 128 405.1V464C128 472.8 120.8 480 112 480C103.2 480 96 472.8 96 464V390.3C38.61 357.1 0 295.1 0 224C0 117.1 85.96 32 192 32C232.7 32 270.4 44.64 301.4 66.21C335.3 89.72 372.4 112 413.6 112H464C525.9 112 576 162.1 576 224V464C576 471.3 571.1 477.7 564 479.5C556.1 481.3 549.6 478.1 546 471.8zM192 384C225.9 384 257.3 373.5 283.2 355.5C316.9 332.1 361.4 304 413.6 304H464C508.2 304 544 268.2 544 224C544 179.8 508.2 144 464 144H413.6C361.4 144 316.9 115.9 283.2 92.49C257.3 74.53 225.9 64 191.1 64C103.6 64 31.1 135.6 31.1 224C31.1 312.4 103.6 384 191.1 384H192zM544 402.3V302.4C532.6 313.1 518.8 323.1 503.3 328.9L544 402.3z"/></svg>
